!!!OTL: DA DROBEN AUF JENEM BERGE
!!!ARE: Europa, Mitteleuropa, Deutschland
!!!SCT: E0419B
!!!YEM: Copyright 1995, estate of Helmut Schaffrath.
**kern
*ICvox
*Ivox
*M6/8
*k[f#]
*G:
{8d
=1
8.g
16a
16b
16cc
8.dd
16ee
16dd
16cc
=2
4b
8a
4g}
{8a
=3
8.b
16cc
8dd
8dd
8cc
8b
=4
2a
8r}
{16b
16cc
=5
8dd
8b
8dd
8dd
8b
8dd
=6
8.ee
16ff#
8ee
4dd}
{8cc
=7
8.b
16cc
8b
8a
8g
8a
=8
2g
8r}
==
!!!AGN: Liebes - Lied, Liebe
!!!ONB: ESAC (Essen Associative Code) Database: ERK1
!!!AMT: compound duple
!!!AIN: vox
!!!EED: Helmut Schaffrath
!!!EEV: 1.0
*-
